source/img/footer2-address.svg

<svg xmlns="http://www.w3.org/2000/svg" width="12" height="15"><defs><filter id="a"><feFlood flood-color="#FFF" flood-opacity="1" result="floodOut"/><feComposite operator="atop" in="floodOut" in2="SourceGraphic" result="compOut"/><feBlend in="compOut" in2="SourceGraphic"/></filter></defs><g filter="url(#a)"><path fill-rule="evenodd" opacity=".502" fill="#00FFD7" d="M5.786.003C2.798.107.315 2.432.029 5.398a5.98 5.98 0 00.08 1.719s.009.064.04.187c.092.412.231.812.404 1.187.601 1.42 1.992 3.797 5.113 6.383a.525.525 0 00.666 0c3.121-2.583 4.512-4.959 5.116-6.386.176-.375.311-.772.404-1.187.028-.12.04-.187.04-.187.071-.369.108-.747.108-1.135C12 2.604 9.197-.117 5.786.003zm.213 8.952c-1.61 0-2.914-1.3-2.914-2.905a2.909 2.909 0 012.914-2.905c1.61 0 2.914 1.3 2.914 2.905a2.909 2.909 0 01-2.914 2.905z"/></g></svg>

<svg 
 xmlns="http://www.w3.org/2000/svg"
 xmlns:xlink="http://www.w3.org/1999/xlink"
 width="12px" height="15px">
<defs>
<filter id="Filter_0">
    <feFlood flood-color="rgb(255, 255, 255)" flood-opacity="1" result="floodOut" />
    <feComposite operator="atop" in="floodOut" in2="SourceGraphic" result="compOut" />
    <feBlend mode="normal" in="compOut" in2="SourceGraphic" />
</filter>

</defs>
<g filter="url(#Filter_0)">
<path fill-rule="evenodd"  opacity="0.502" fill="rgb(0, 255, 215)"
 d="M5.786,0.003 C2.798,0.107 0.315,2.432 0.029,5.398 C-0.030,5.992 0.004,6.567 0.109,7.117 L0.109,7.117 C0.109,7.117 0.118,7.181 0.149,7.304 C0.241,7.716 0.380,8.116 0.553,8.491 C1.154,9.911 2.545,12.288 5.666,14.874 C5.857,15.033 6.138,15.033 6.332,14.874 C9.453,12.291 10.844,9.915 11.448,8.488 C11.624,8.113 11.759,7.716 11.852,7.301 C11.880,7.181 11.892,7.114 11.892,7.114 L11.892,7.114 C11.963,6.745 12.000,6.367 12.000,5.979 C12.000,2.604 9.197,-0.117 5.786,0.003 ZM5.999,8.955 C4.389,8.955 3.085,7.655 3.085,6.050 C3.085,4.445 4.389,3.145 5.999,3.145 C7.609,3.145 8.913,4.445 8.913,6.050 C8.913,7.655 7.609,8.955 5.999,8.955 Z"/>
</g>
</svg>
